src/assets/facebook-icon.svg

<svg xmlns="http://www.w3.org/2000/svg" width="24" height="24" fill="none">
  <path fill="#240000" d="M22 12c0-5.52-4.48-10-10-10S2 6.48 2 12c0 4.84 3.44 8.87 8 9.8V15H8v-3h2V9.5C10 7.57 11.57 6 13.5 6H16v3h-2c-.55 0-1 .45-1 1v2h3v3h-3v6.95c5.05-.5 9-4.76 9-9.95Z"/>
</svg>

<svg width="24" height="24" viewBox="0 0 24 24" fill="none" xmlns="http://www.w3.org/2000/svg">
<path d="M22 12C22 6.48 17.52 2 12 2C6.48 2 2 6.48 2 12C2 16.84 5.44 20.87 10 21.8V15H8V12H10V9.5C10 7.57 11.57 6 13.5 6H16V9H14C13.45 9 13 9.45 13 10V12H16V15H13V21.95C18.05 21.45 22 17.19 22 12Z" fill="#240000"/>
</svg>
